picto/truck-left.svg

<svg class="color-immutable" width="24" height="24" viewBox="0 0 24 24" fill="none" xmlns="http://www.w3.org/2000/svg"><path d="M0 22.5V1.5C0 0.675 0.675 0 1.5 0H22.5C23.325 0 24 0.675 24 1.5V22.5C24 23.325 23.325 24 22.5 24H1.5C0.675 24 0 23.325 0 22.5Z" fill="#2D327D"/><path d="M6.60004 18.675C6.60004 19.247 6.80604 19.77 7.14904 20.175C7.57504 20.68 8.21304 21 8.92504 21C9.63704 21 10.275 20.68 10.701 20.175C11.044 19.77 11.25 19.247 11.25 18.675C11.25 17.391 10.209 16.35 8.92504 16.35C7.64104 16.35 6.60004 17.391 6.60004 18.675ZM7.72504 18.675C7.72504 18.012 8.26204 17.475 8.92504 17.475C9.58804 17.475 10.125 18.012 10.125 18.675C10.125 19.338 9.58804 19.875 8.92504 19.875C8.26204 19.875 7.72504 19.338 7.72504 18.675Z" fill="white"/><path d="M20.999 17.775H12.374V19.275H20.999V17.775Z" fill="white"/><path d="M2.99902 13.35L3.00002 18.9C3.00002 19.107 3.16802 19.275 3.37502 19.275H5.32502C5.53202 19.275 5.70002 19.107 5.70002 18.9V18.675V18.664C5.70602 16.888 7.14702 15.45 8.92502 15.45C9.84002 15.45 10.666 15.831 11.252 16.442L11.249 9.52501H5.02602C4.41502 9.52501 3.88002 9.93501 3.72202 10.525L3.04602 13C3.01502 13.114 2.99902 13.232 2.99902 13.35ZM8.99902 10.2C9.20602 10.2 9.37402 10.368 9.37402 10.575V12.75C9.37402 12.957 9.20602 13.125 8.99902 13.125H4.19902C3.99202 13.125 3.82402 12.957 3.82402 12.75C3.82402 12.717 3.82802 12.685 3.83702 12.653L4.37302 10.645C4.44402 10.382 4.67902 10.2 4.95002 10.2H8.99902Z" fill="white"/><path d="M21 12.45H15.3C15.093 12.45 14.925 12.282 14.925 12.075C14.925 11.868 15.093 11.7 15.3 11.7H21V10.95H15.3C15.093 10.95 14.925 10.782 14.925 10.575C14.925 10.368 15.093 10.2 15.3 10.2H21V8.175H12.75C12.543 8.175 12.375 8.343 12.375 8.55C12.375 11.175 12.375 17.025 12.375 17.025L21 17.021V12.45Z" fill="white"/></svg>

<svg class="color-immutable" width="24" height="24" viewBox="0 0 24 24" fill="none" xmlns="http://www.w3.org/2000/svg"><g clip-path="url(#a)"><path d="M0 22.5v-21C0 .675.675 0 1.5 0h21c.825 0 1.5.675 1.5 1.5v21c0 .825-.675 1.5-1.5 1.5h-21C.675 24 0 23.325 0 22.5Z" fill="#2D327D"/><path d="M6.6 18.675c0 .572.206 1.095.549 1.5A2.318 2.318 0 0 0 8.925 21c.712 0 1.35-.32 1.776-.825a2.325 2.325 0 1 0-4.101-1.5Zm1.125 0a1.2 1.2 0 1 1 2.4 0 1.2 1.2 0 0 1-2.4 0ZM20.999 17.775h-8.625v1.5h8.625v-1.5Z" fill="#fff"/><path d="M2.999 13.35 3 18.9c0 .207.168.375.375.375h1.95A.375.375 0 0 0 5.7 18.9V18.664a3.225 3.225 0 0 1 5.552-2.222l-.003-6.917H5.026a1.35 1.35 0 0 0-1.304 1L3.046 13a1.336 1.336 0 0 0-.047.35Zm6-3.15c.207 0 .375.168.375.375v2.175a.375.375 0 0 1-.375.375h-4.8a.375.375 0 0 1-.362-.472l.536-2.008a.598.598 0 0 1 .577-.445h4.049ZM21 12.45h-5.7a.375.375 0 0 1 0-.75H21v-.75h-5.7a.375.375 0 0 1 0-.75H21V8.175h-8.25a.375.375 0 0 0-.375.375v8.475L21 17.021V12.45Z" fill="#fff"/></g><defs><clipPath id="a"><path fill="#fff" d="M0 0h24v24H0z"/></clipPath></defs></svg>
